X:1
T:A Child’s Song of Heaven
T:A Child’s Song of Heaven
T:Martha Nighswander, 1998
T:M. N., 1998
T:PUBLIC DOMAIN
T:PUBLIC DOMAIN
C:Martha Nighswander, 1998
Z:M. N., 1998
Z:PUBLIC DOMAIN
%%score ( 1 2 ) ( 3 4 )
L:1/8
Q:1/4=90
M:4/4
K:D
V:1 treble nm="Treble"
V:2 treble 
V:3 bass nm="Bass"
V:4 bass 
V:1
 [Fd]2 | [Ac]3 [GB] [FA]2 [DF]2 | [FA]4 [EG]2 [CE]2 | [DF]3 D F2 [DB]2 | A6 | [EG]2 | %6
w: I|want to go to|Heav- en, that|Home so bright and|fair;|So|
w: ||||||
w: ||||||
w: ||||||
 [DF]3 [CG] [DA]2 D2 | [DB]2 [DB]2 [Gd]2 [GB]2 | [FA]2 [Fd]2 [Ed]2 [Gc]2 | [Fd]6 || [FA]2 | %11
w: beau- ti- ful, and—|best of all— Dear|Je- sus will be|there!|1.~I|
w: ||||2.~I|
w: ||||3.~I’ll|
w: ||||4.~Oh,|
 [FA]3 [DF] [DF]2 [DFA]2 | [DA]4 [CG]2 [CE]2 | [DF]3 D [DF]2 [DB]2 | A6 [CG]2 | %15
w: want to see the|cit- y a-|way be- yond the|sky, With|
w: nev- er will get|hurt there, I’ll|nev- er have to|cry; No|
w: see old No- ah,|Mo- ses, E-|li- jah, Dan- iel,|Paul, And|
w: there I’ll be so|hap- py with|friends both old and|young; The|
 [DF]3 [CG] [DA]2 [DA]2 | [DB]2 [DB]2 [Gd]2 [GB]2 | [FA]3 [DF] [EG]2 [CA]2 | [DF]6 [DF]2 | %19
w: pearl- y gates and|walls of shin- ing|stones so great and|high; Be-|
w: pain or sick- ness|there in Heav’n, and|none will ev- er|die; There|
w: all the mil- lions|since that time who|gave to God their|all; The|
w: lame and blind, now|healed and well, praise|God in end- less|song; The|
 E3 ^D E2 [=DF]2 | [CG]4 [CG]2 [CG]2 | [DF]3 E F2 [EG]2 | [FA]6 [FA]2 | [E^G]3 [E=G] [E^G]2 [EA]2 | %24
w: side the crys- tal|riv- er there|is a fruit- ful|tree; And,|oh, I want to|
w: Sa- tan can- not|tempt me to|e- ven once be|bad, For|sin can nev- er|
w: man- y lit- tle|child- ren who’ve|died be- fore they’re|old Are|sing- ing ’round the|
w: an- gels too will|join us; and|dressed in spot- less|white, We’ll|not get tired of|
 [^GB]3 [GB] [GB]2 [Gc]2 | [^Gd]3 [Gd] [Gc]2 [GB]2 | [EA]6 |] %27
w: see the man- sions|made for you and|me!|
w: en- ter Heav’n— I’ll|be so safe, so|glad!|
w: throne of God, and|play on streets of|gold!|
w: prais- ing God, for|there there is no|night!|
V:2
 x2 | x8 | x8 | z3 D F2 z2 | (C2 G2 F2) | z2 | z4 z2 D2 | x8 | x8 | x6 || x2 | x8 | x8 | z3 D z4 | %14
 (C2 E2 D2) z2 | x8 | x8 | x8 | x8 | E3 ^D E2 z2 | x8 | z3 E F2 z2 | x8 | x8 | x8 | x8 | x6 |] %27
V:3
 [D,A,]2 | [A,,A,]3 [A,,A,] [A,,A,]2 [A,,A,]2 | [A,,D]4 [A,,C]2 [A,,A,]2 | %3
 [D,A,]3 [D,F,] [B,,B,]2 [G,,G,]2 | (A,2 C2 D2) | [A,,A,]2 | [D,A,]3 [E,A,] F,2 F,2 | %7
 G,2 G,2 [G,B,]2 [G,D]2 | [A,D]2 [A,D]2 A,2 [A,,A,]2 | [D,A,]6 || [D,A,]2 | %11
 [D,A,]3 [D,A,] [D,A,]2 [D,A,]2 | [A,,F,]4 [A,,E,]2 [A,,A,]2 | [D,A,]3 [D,F,] [B,,B,]2 [G,,G,]2 | %14
 (E,2 A,2 F,2) [E,A,]2 | [D,A,]3 [E,A,] [D,F,]2 [D,F,]2 | [G,,G,]2 [G,,G,]2 [G,,B,]2 [G,,D]2 | %17
 [A,,D]3 [A,,D] [A,,C]2 [A,,A,]2 | [D,A,]6 [D,A,]2 | E,3 ^D, [E,G,]2 [A,,F,]2 | %20
 [A,,E,]4 [A,,E,]2 [A,,E,]2 | [D,A,]3 [E,G,] [D,F,]2 [A,,A,]2 | [D,D]6 [D,D]2 | %23
 [B,,B,]3 [B,,B,] [B,,B,]2 [B,,C]2 | [E,D]3 [E,D] [E,D]2 [E,D]2 | [E,B,]3 [E,B,] [E,B,]2 [E,D]2 | %26
 [A,C]6 |] %27
V:4
 x2 | x8 | x8 | x8 | A,,6 | z2 | z4 F,2 F,2 | G,2 G,2 z4 | z4 A,2 z2 | x6 || x2 | x8 | x8 | x8 | %14
 A,,6 z2 | x8 | x8 | x8 | x8 | E,3 ^D, z4 | x8 | x8 | x8 | x8 | x8 | x8 | x6 |] %27

